SVG_Azure_Grouped/Deployment/Ansible.svg

<?xml version="1.0" encoding="UTF-8" standalone="no"?>
<!-- Generated by Microsoft Visio, SVG Export Ansible.svg Page-1 -->

<svg
   xmlns:dc="http://purl.org/dc/elements/1.1/"
   xmlns:cc="http://creativecommons.org/ns#"
   xmlns:rdf="http://www.w3.org/1999/02/22-rdf-syntax-ns#"
   xmlns:svg="http://www.w3.org/2000/svg"
   xmlns="http://www.w3.org/2000/svg"
   xmlns:sodipodi="http://sodipodi.sourceforge.net/DTD/sodipodi-0.dtd"
   xmlns:inkscape="http://www.inkscape.org/namespaces/inkscape"
   width="0.78739941in"
   height="0.78739941in"
   viewBox="0 0 56.692756 56.692898"
   xml:space="preserve"
   class="st4"
   version="1.1"
   id="svg44"
   sodipodi:docname="Ansible.svg"
   style="font-size:12px;overflow:visible;color-interpolation-filters:sRGB;fill:none;fill-rule:evenodd;stroke-linecap:square;stroke-miterlimit:3"
   inkscape:version="0.92.5 (2060ec1f9f, 2020-04-08)"><metadata
   id="metadata50"><rdf:RDF><cc:Work
       rdf:about=""><dc:format>image/svg+xml</dc:format><dc:type
         rdf:resource="http://purl.org/dc/dcmitype/StillImage" /></cc:Work></rdf:RDF></metadata><defs
   id="defs48" /><sodipodi:namedview
   pagecolor="#ffffff"
   bordercolor="#666666"
   borderopacity="1"
   objecttolerance="10"
   gridtolerance="10"
   guidetolerance="10"
   inkscape:pageopacity="0"
   inkscape:pageshadow="2"
   inkscape:window-width="640"
   inkscape:window-height="480"
   id="namedview46"
   showgrid="false"
   inkscape:zoom="1.8365233"
   inkscape:cx="37.795184"
   inkscape:cy="18.897555"
   inkscape:window-x="0"
   inkscape:window-y="0"
   inkscape:window-maximized="0"
   inkscape:current-layer="svg44" />
	<style
   type="text/css"
   id="style2">
	<![CDATA[
		.st1 {fill:none;stroke:none;stroke-linecap:butt;stroke-width:0.75}
		.st2 {fill:#cc0000;stroke:none;stroke-linecap:butt;stroke-width:0.75}
		.st3 {fill:#ffffff;stroke:none;stroke-linecap:butt;stroke-width:0.75}
		.st4 {fill:none;fill-rule:evenodd;font-size:12px;overflow:visible;stroke-linecap:square;stroke-miterlimit:3}
	]]>
	</style>

	<g
   id="g42"
   transform="translate(-5.6693772,-5.6693014)">
		<title
   id="title4">Page-1</title>
		<g
   id="group17486-1"
   transform="translate(5.66929,-34.0157)">
			<title
   id="title6">Ansible.17486</title>
			<g
   id="group17487-2">
				<title
   id="title8">Page-1</title>
				<g
   id="group17488-3">
					<title
   id="title10">ansible</title>
					<g
   id="group17489-4">
						<title
   id="title12">canvas_background</title>
						<g
   id="shape17490-5">
							<title
   id="title14">Sheet.17490</title>
							<rect
   x="0"
   y="39.685001"
   width="56.692902"
   height="56.692902"
   class="st1"
   id="rect16"
   style="fill:none;stroke:none;stroke-width:0.75;stroke-linecap:butt" />
						</g>
					</g>
					<g
   id="group17491-7"
   transform="translate(3.17824,-1.37437)">
						<title
   id="title20">Sheet.17491</title>
						<g
   id="group17492-8">
							<title
   id="title22">svg_23</title>
							<g
   id="shape17493-9">
								<title
   id="title24">Sheet.17493</title>
								<path
   d="M 50.85,70.09 C 50.85,84.61 39.46,96.38 25.43,96.38 11.39,96.38 0,84.61 0,70.09 0,55.57 11.39,43.81 25.43,43.81 c 14.03,0 25.42,11.76 25.42,26.28 z"
   class="st2"
   id="path26"
   inkscape:connector-curvature="0"
   style="fill:#cc0000;stroke:none;stroke-width:0.75;stroke-linecap:butt" />
							</g>
						</g>
						<g
   id="group17494-11"
   transform="translate(10.5655,-12.713)">
							<title
   id="title30">svg_24</title>
							<g
   id="shape17495-12">
								<title
   id="title32">Sheet.17495</title>
								<path
   d="M 27.8,93.39 16.27,64.99 c -0.33,-0.82 -0.99,-1.26 -1.8,-1.26 -0.8,0 -1.51,0.44 -1.84,1.26 L 0,96.14 H 4.31 L 9.32,83.29 24.27,95.65 c 0.6,0.51 1.04,0.73 1.6,0.73 1.14,0 2.13,-0.87 2.13,-2.13 0,-0.19 -0.06,-0.5 -0.2,-0.86 z m -13.3,-23.3 7.48,18.93 -11.3,-9.13 z"
   class="st3"
   id="path34"
   inkscape:connector-curvature="0"
   style="fill:#ffffff;stroke:none;stroke-width:0.75;stroke-linecap:butt" />
							</g>
						</g>
					</g>
				</g>
			</g>
		</g>
	</g>
</svg>

<?xml version="1.0" encoding="UTF-8" standalone="no"?>
<!DOCTYPE svg PUBLIC "-//W3C//DTD SVG 1.1//EN" "http://www.w3.org/Graphics/SVG/1.1/DTD/svg11.dtd">
<!-- Generated by Microsoft Visio, SVG Export Ansible.svg Page-1 -->
<svg xmlns="http://www.w3.org/2000/svg" xmlns:xlink="http://www.w3.org/1999/xlink" xmlns:ev="http://www.w3.org/2001/xml-events"
		width="0.944882in" height="1.33858in" viewBox="0 0 68.0315 96.378" xml:space="preserve" color-interpolation-filters="sRGB"
		class="st4">
	<style type="text/css">
	<![CDATA[
		.st1 {fill:none;stroke:none;stroke-linecap:butt;stroke-width:0.75}
		.st2 {fill:#cc0000;stroke:none;stroke-linecap:butt;stroke-width:0.75}
		.st3 {fill:#ffffff;stroke:none;stroke-linecap:butt;stroke-width:0.75}
		.st4 {fill:none;fill-rule:evenodd;font-size:12px;overflow:visible;stroke-linecap:square;stroke-miterlimit:3}
	]]>
	</style>

	<g>
		<title>Page-1</title>
		<g id="group17089-1" transform="translate(5.66929,-34.0157)">
			<title>Ansible.17089</title>
			<g id="group17090-2">
				<title>Page-1</title>
				<g id="group17091-3">
					<title>ansible</title>
					<g id="group17092-4">
						<title>canvas_background</title>
						<g id="shape17093-5">
							<title>Sheet.17093</title>
							<rect x="0" y="39.685" width="56.6929" height="56.6929" class="st1"/>
						</g>
					</g>
					<g id="group17094-7" transform="translate(3.17824,-1.37437)">
						<title>Sheet.17094</title>
						<g id="group17095-8">
							<title>svg_23</title>
							<g id="shape17096-9">
								<title>Sheet.17096</title>
								<path d="M50.85 70.09 C50.85 84.61 39.46 96.38 25.43 96.38 C11.39 96.38 0 84.61 0 70.09 C0 55.57
											 11.39 43.81 25.43 43.81 C39.46 43.81 50.85 55.57 50.85 70.09 Z" class="st2"/>
							</g>
						</g>
						<g id="group17097-11" transform="translate(10.5655,-12.713)">
							<title>svg_24</title>
							<g id="shape17098-12">
								<title>Sheet.17098</title>
								<path d="M27.8 93.39 L16.27 64.99 C15.94 64.17 15.28 63.73 14.47 63.73 C13.67 63.73 12.96 64.17 12.63
											 64.99 L0 96.14 L4.31 96.14 L9.32 83.29 L24.27 95.65 C24.87 96.16 25.31 96.38 25.87 96.38
											 C27.01 96.38 28 95.51 28 94.25 C28 94.06 27.94 93.75 27.8 93.39 ZM14.5 70.09 L21.98
											 89.02 L10.68 79.89 L14.5 70.09 Z" class="st3"/>
							</g>
						</g>
					</g>
				</g>
			</g>
		</g>
	</g>
</svg>
